public/assets/img/program1-5.svg

<svg width="39" height="39" viewBox="0 0 39 39" fill="none" xmlns="http://www.w3.org/2000/svg">
<path d="M8.125 23.75V25C7.09125 25 6.25 25.8412 6.25 26.875C6.25 27.9088 7.09125 28.75 8.125 28.75H9.375C9.71937 28.75 10 29.03 10 29.375C10 29.72 9.71937 30 9.375 30H7.5V29.375H6.25V31.25H8.125V32.5H9.375V31.25C10.4088 31.25 11.25 30.4088 11.25 29.375C11.25 28.3412 10.4088 27.5 9.375 27.5H8.125C7.78062 27.5 7.5 27.22 7.5 26.875C7.5 26.53 7.78062 26.25 8.125 26.25H10V26.875H11.25V25H9.375V23.75H8.125Z" fill="#ACBDCE"/>
<path d="M36.875 30H32.5V24.3431C35.9987 24.0263 38.75 21.08 38.75 17.5C38.75 13.92 35.9987 10.9738 32.5 10.6569V3.125C32.5 1.40188 31.0981 0 29.375 0H6.875C5.15188 0 3.75 1.40188 3.75 3.125V19.7775C3.05188 19.9188 2.34062 20 1.62312 20H0V24.7362C0 30.1981 2.71313 35.2688 7.25875 38.2981C7.70187 38.5938 8.2175 38.75 8.75 38.75C9.2825 38.75 9.79812 38.5938 10.2419 38.2981C11.05 37.7594 11.8019 37.145 12.5 36.4694V36.875C12.5 37.9087 13.3412 38.75 14.375 38.75H24.375C24.8569 38.75 25.2925 38.5619 25.625 38.2625C25.9575 38.5625 26.3931 38.75 26.875 38.75H36.875C37.9087 38.75 38.75 37.9087 38.75 36.875V35.625C38.75 35.1431 38.5619 34.7075 38.2625 34.375C38.5625 34.0425 38.75 33.6069 38.75 33.125V31.875C38.75 30.8412 37.9087 30 36.875 30ZM37.5 31.875V33.125C37.5 33.47 37.2194 33.75 36.875 33.75H26.875C26.5306 33.75 26.25 33.47 26.25 33.125V31.875C26.25 31.53 26.5306 31.25 26.875 31.25H27.5V32.5H28.75V31.25H30V32.5H31.25V31.25H32.5V32.5H33.75V31.25H35V32.5H36.25V31.25H36.875C37.2194 31.25 37.5 31.53 37.5 31.875ZM14.375 33.75C14.0306 33.75 13.75 33.47 13.75 33.125V31.875C13.75 31.53 14.0306 31.25 14.375 31.25H15V32.5H16.25V31.25H17.5V32.5H18.75V31.25H20V32.5H21.25V31.25H22.5V32.5H23.75V31.25H24.375C24.7194 31.25 25 31.53 25 31.875V33.125C25 33.47 24.7194 33.75 24.375 33.75H14.375ZM15.8769 20C13.4381 20 11.0456 19.1606 9.14 17.6369L8.75 17.325L8.35938 17.6369C8.08375 17.8575 7.795 18.0594 7.5 18.2512V7.5H28.75V11.3838C28.3037 11.6125 27.8831 11.8837 27.5 12.2006V8.75H8.75V16.25H25.1194C25.0444 16.6562 25 17.0725 25 17.5C25 20.165 26.5275 22.4756 28.75 23.6162V30H26.875C26.5781 30 26.3006 30.0756 26.0506 30.1994C26.1744 29.9494 26.25 29.6719 26.25 29.375V28.125C26.25 27.0912 25.4088 26.25 24.375 26.25H17.4169C17.4663 25.7369 17.5 25.2288 17.5 24.7362V20H15.8769ZM25.4775 15H17.5V10H26.25V13.5594C25.9375 14.0044 25.6788 14.4869 25.4775 15ZM10 15V10H16.25V15H10ZM16.25 28.75V27.5H17.5V28.75H18.75V27.5H20V28.75H21.25V27.5H22.5V28.75H23.75V27.5H24.375C24.7194 27.5 25 27.78 25 28.125V29.375C25 29.72 24.7194 30 24.375 30H14.375C14.0306 30 13.75 29.72 13.75 29.375V28.125C13.75 27.78 14.0306 27.5 14.375 27.5H15V28.75H16.25ZM13.75 24.7362C13.75 25.2812 13.7012 25.8438 13.6244 26.4094C12.9637 26.6994 12.5 27.3581 12.5 28.125V29.375C12.5 29.5812 12.5419 29.7769 12.6038 29.9625C11.735 31.8587 10.415 33.5088 8.75 34.7612C5.61125 32.3988 3.75 28.6838 3.75 24.7362V23.5919C5.4975 23.3306 7.20937 22.745 8.75 21.8806C10.2906 22.745 12.0025 23.3306 13.75 23.5919V24.7362ZM30 30V24.1088C30.4031 24.2231 30.8206 24.3044 31.25 24.3438V30H30ZM37.5 17.5C37.5 20.6019 34.9762 23.125 31.875 23.125C28.7738 23.125 26.25 20.6019 26.25 17.5C26.25 14.3981 28.7738 11.875 31.875 11.875C34.9762 11.875 37.5 14.3981 37.5 17.5ZM6.875 1.25H29.375C30.4088 1.25 31.25 2.09125 31.25 3.125V3.75H5V3.125C5 2.09125 5.84125 1.25 6.875 1.25ZM5 5H31.25V10.6569C30.82 10.6956 30.4031 10.7769 30 10.8919V7.5C30 6.81063 29.4394 6.25 28.75 6.25H7.5C6.81063 6.25 6.25 6.81063 6.25 7.5V18.9462C5.84375 19.1394 5.42688 19.3069 5 19.4481V5ZM9.54875 37.2581C9.07312 37.5744 8.42688 37.5744 7.95187 37.2581C3.755 34.4606 1.25 29.7794 1.25 24.7362V21.25H1.62312C4.18062 21.25 6.6925 20.4231 8.75 18.9125C10.8075 20.4231 13.3194 21.25 15.8769 21.25H16.25V24.7362C16.25 25.2269 16.2144 25.7356 16.1612 26.25H14.9038C14.9606 25.7394 15 25.2319 15 24.7362V22.4825L14.4431 22.4212C12.5581 22.215 10.7 21.5925 9.07 20.6213L8.75 20.4306L8.43 20.6213C6.8 21.5925 4.94125 22.215 3.05687 22.4212L2.5 22.4825V24.7362C2.5 29.24 4.7025 33.4675 8.39188 36.0456L8.75 36.2956L9.10812 36.0456C10.4356 35.1181 11.58 33.9681 12.5 32.655V33.125C12.5 33.535 12.6363 33.9112 12.86 34.2206C11.9031 35.3994 10.7975 36.4256 9.54875 37.2581ZM24.375 37.5H14.375C14.0306 37.5 13.75 37.22 13.75 36.875V35.625C13.75 35.28 14.0306 35 14.375 35H15V36.25H16.25V35H17.5V36.25H18.75V35H20V36.25H21.25V35H22.5V36.25H23.75V35H24.375C24.7194 35 25 35.28 25 35.625V36.875C25 37.22 24.7194 37.5 24.375 37.5ZM37.5 36.875C37.5 37.22 37.2194 37.5 36.875 37.5H26.875C26.5306 37.5 26.25 37.22 26.25 36.875V35.625C26.25 35.28 26.5306 35 26.875 35H27.5V36.25H28.75V35H30V36.25H31.25V35H32.5V36.25H33.75V35H35V36.25H36.25V35H36.875C37.2194 35 37.5 35.28 37.5 35.625V36.875Z" fill="#ACBDCE"/>
<path d="M27.5 17.5C27.5 19.9119 29.4625 21.875 31.875 21.875C34.2875 21.875 36.25 19.9119 36.25 17.5C36.25 15.0881 34.2875 13.125 31.875 13.125C29.4625 13.125 27.5 15.0881 27.5 17.5ZM31.875 18.125C31.5306 18.125 31.25 17.845 31.25 17.5C31.25 17.155 31.5306 16.875 31.875 16.875C32.2194 16.875 32.5 17.155 32.5 17.5C32.5 17.845 32.2194 18.125 31.875 18.125ZM31.25 14.4381V15.74C30.7206 15.9288 30.3037 16.3456 30.115 16.875H28.8131C29.0625 15.6525 30.0275 14.6875 31.25 14.4381ZM28.8131 18.125H30.115C30.3037 18.6544 30.7206 19.0713 31.25 19.26V20.5619C30.0275 20.3125 29.0625 19.3475 28.8131 18.125ZM32.5 20.5619V19.26C33.0294 19.0713 33.4463 18.6544 33.635 18.125H34.9369C34.6875 19.3475 33.7225 20.3125 32.5 20.5619ZM34.9369 16.875H33.635C33.4463 16.3456 33.0294 15.9288 32.5 15.74V14.4381C33.7225 14.6875 34.6875 15.6525 34.9369 16.875Z" fill="#ACBDCE"/>
</svg>

<svg width="39" height="39" fill="none" xmlns="http://www.w3.org/2000/svg"><path d="M8.125 23.75V25a1.877 1.877 0 0 0-1.875 1.875c0 1.034.841 1.875 1.875 1.875h1.25a.626.626 0 0 1 0 1.25H7.5v-.625H6.25v1.875h1.875v1.25h1.25v-1.25a1.877 1.877 0 0 0 1.875-1.875A1.877 1.877 0 0 0 9.375 27.5h-1.25a.626.626 0 0 1 0-1.25H10v.625h1.25V25H9.375v-1.25h-1.25Z" fill="#ACBDCE"/><path d="M36.875 30H32.5v-5.657c3.499-.317 6.25-3.263 6.25-6.843s-2.751-6.526-6.25-6.843V3.125A3.129 3.129 0 0 0 29.375 0h-22.5A3.129 3.129 0 0 0 3.75 3.125v16.652A10.72 10.72 0 0 1 1.623 20H0v4.736a16.265 16.265 0 0 0 7.259 13.562 2.682 2.682 0 0 0 2.983 0A16.059 16.059 0 0 0 12.5 36.47v.406c0 1.034.841 1.875 1.875 1.875h10c.482 0 .918-.188 1.25-.487.332.3.768.487 1.25.487h10a1.877 1.877 0 0 0 1.875-1.875v-1.25c0-.482-.188-.917-.487-1.25.3-.333.487-.768.487-1.25v-1.25A1.877 1.877 0 0 0 36.875 30Zm.625 1.875v1.25c0 .345-.28.625-.625.625h-10a.626.626 0 0 1-.625-.625v-1.25c0-.345.28-.625.625-.625h.625v1.25h1.25v-1.25H30v1.25h1.25v-1.25h1.25v1.25h1.25v-1.25H35v1.25h1.25v-1.25h.625c.344 0 .625.28.625.625ZM14.375 33.75a.626.626 0 0 1-.625-.625v-1.25c0-.345.28-.625.625-.625H15v1.25h1.25v-1.25h1.25v1.25h1.25v-1.25H20v1.25h1.25v-1.25h1.25v1.25h1.25v-1.25h.625c.344 0 .625.28.625.625v1.25c0 .345-.28.625-.625.625h-10ZM15.877 20c-2.439 0-4.831-.84-6.737-2.363l-.39-.312-.39.312c-.276.22-.565.422-.86.614V7.5h21.25v3.884c-.446.229-.867.5-1.25.817V8.75H8.75v7.5h16.37c-.076.406-.12.823-.12 1.25a6.878 6.878 0 0 0 3.75 6.116V30h-1.875a1.85 1.85 0 0 0-.824.2c.123-.25.199-.528.199-.825v-1.25a1.877 1.877 0 0 0-1.875-1.875h-6.958c.05-.513.083-1.021.083-1.514V20h-1.623Zm9.6-5H17.5v-5h8.75v3.56a6.866 6.866 0 0 0-.773 1.44ZM10 15v-5h6.25v5H10Zm6.25 13.75V27.5h1.25v1.25h1.25V27.5H20v1.25h1.25V27.5h1.25v1.25h1.25V27.5h.625c.344 0 .625.28.625.625v1.25c0 .345-.28.625-.625.625h-10a.626.626 0 0 1-.625-.625v-1.25c0-.345.28-.625.625-.625H15v1.25h1.25Zm-2.5-4.014c0 .545-.049 1.108-.126 1.673-.66.29-1.124.95-1.124 1.716v1.25c0 .206.042.402.104.587a12.524 12.524 0 0 1-3.854 4.8 12.556 12.556 0 0 1-5-10.026v-1.144a14.72 14.72 0 0 0 5-1.711 14.72 14.72 0 0 0 5 1.71v1.145ZM30 30v-5.891c.403.114.82.195 1.25.235V30H30Zm7.5-12.5a5.631 5.631 0 0 1-5.625 5.625A5.631 5.631 0 0 1 26.25 17.5a5.631 5.631 0 0 1 5.625-5.625A5.631 5.631 0 0 1 37.5 17.5ZM6.875 1.25h22.5c1.034 0 1.875.841 1.875 1.875v.625H5v-.625c0-1.034.841-1.875 1.875-1.875ZM5 5h26.25v5.657c-.43.039-.847.12-1.25.235V7.5c0-.69-.56-1.25-1.25-1.25H7.5c-.69 0-1.25.56-1.25 1.25v11.446c-.406.193-.823.36-1.25.502V5Zm4.549 32.258a1.462 1.462 0 0 1-1.597 0A15.018 15.018 0 0 1 1.25 24.736V21.25h.373c2.558 0 5.07-.827 7.127-2.337a12.083 12.083 0 0 0 7.127 2.337h.373v3.486c0 .49-.036 1-.089 1.514h-1.257c.057-.51.096-1.018.096-1.514v-2.253l-.557-.062a13.424 13.424 0 0 1-5.373-1.8l-.32-.19-.32.19a13.428 13.428 0 0 1-5.373 1.8l-.557.062v2.253c0 4.504 2.202 8.732 5.892 11.31l.358.25.358-.25a13.777 13.777 0 0 0 3.392-3.391v.47c0 .41.136.786.36 1.096a14.959 14.959 0 0 1-3.311 3.037Zm14.826.242h-10a.626.626 0 0 1-.625-.625v-1.25c0-.345.28-.625.625-.625H15v1.25h1.25V35h1.25v1.25h1.25V35H20v1.25h1.25V35h1.25v1.25h1.25V35h.625c.344 0 .625.28.625.625v1.25c0 .345-.28.625-.625.625Zm13.125-.625c0 .345-.28.625-.625.625h-10a.626.626 0 0 1-.625-.625v-1.25c0-.345.28-.625.625-.625h.625v1.25h1.25V35H30v1.25h1.25V35h1.25v1.25h1.25V35H35v1.25h1.25V35h.625c.344 0 .625.28.625.625v1.25Z" fill="#ACBDCE"/><path d="M27.5 17.5a4.38 4.38 0 0 0 4.375 4.375A4.38 4.38 0 0 0 36.25 17.5a4.38 4.38 0 0 0-4.375-4.375A4.38 4.38 0 0 0 27.5 17.5Zm4.375.625a.626.626 0 1 1 .001-1.251.626.626 0 0 1-.001 1.251Zm-.625-3.687v1.302c-.53.189-.946.606-1.135 1.135h-1.302a3.135 3.135 0 0 1 2.437-2.437Zm-2.437 3.687h1.302c.189.53.606.946 1.135 1.135v1.302a3.135 3.135 0 0 1-2.437-2.437Zm3.687 2.437V19.26c.53-.189.946-.606 1.135-1.135h1.302a3.135 3.135 0 0 1-2.437 2.437Zm2.437-3.687h-1.302A1.873 1.873 0 0 0 32.5 15.74v-1.302a3.135 3.135 0 0 1 2.437 2.437Z" fill="#ACBDCE"/></svg>
